X: 6
T: The Lilting Fisherman
R: reel
M: 4/4
L: 1/8
K: Gmaj
B-A|GE~E2 cdef|gedB c-A Az|GE~E2 cdef|gedB c2:|
c-d|ef~g2 eaaf|gedB c-AA2|ef~g2 eaab|c'bag a2g-f|
ef~g2 eaaf|gedB cAA2|GE~E2 cdef|gedB c2c-d||
ef~g2 eaaf|gedB c-AA2|ef~g2 eaab|c'bag a2ab|
(3c'ba bg agef|gedB c-AA2|GE~E2 cdef|gedB c2|]


Tune 345	Setting 13146

